src/images/legende/water.svg

<?xml version="1.0" encoding="iso-8859-1"?>
<!-- Generator: Adobe Illustrator 19.0.0, SVG Export Plug-In . SVG Version: 6.00 Build 0)  -->
<svg version="1.1" id="Capa_1" xmlns="http://www.w3.org/2000/svg" xmlns:xlink="http://www.w3.org/1999/xlink" x="0px" y="0px"
	 viewBox="0 0 480.005 480.005" style="enable-background:new 0 0 480.005 480.005;" xml:space="preserve">
<g>
	<g>
		<path d="M472.003,152h-56c-4.418,0-8,3.582-8,8v24h-72v-8c0-4.418-3.582-8-8-8h-32v-40c0-4.418-3.582-8-8-8h-24V72h23.2
			l47.848,9.6c18.539,3.706,36.572-8.319,40.278-26.858c3.706-18.539-8.319-36.572-26.858-40.278c-4.429-0.885-8.99-0.885-13.419,0
			L287.203,24h-23.2V8c0-4.418-3.582-8-8-8h-32c-4.418,0-8,3.582-8,8v16h-23.2l-47.856-9.6c-18.539-3.728-36.59,8.279-40.318,26.818
			c-3.728,18.539,8.279,36.59,26.818,40.318c2.217,0.446,4.472,0.671,6.733,0.672c2.273-0.001,4.539-0.226,6.768-0.672L192.803,72
			h23.2v48h-24c-4.418,0-8,3.582-8,8v40h-32c-4.418,0-8,3.582-8,8v16h-40c-57.41,0.066-103.934,46.59-104,104v48
			c0,4.418,3.582,8,8,8h80c4.418,0,8-3.582,8-8v-48c0-4.418,3.582-8,8-8h40v16c0,4.418,3.582,8,8,8h176c4.418,0,8-3.582,8-8v-8h72
			v24c0,4.418,3.582,8,8,8h56c4.418,0,8-3.582,8-8V160C480.003,155.582,476.421,152,472.003,152z M264.003,40h24
			c0.538,0.005,1.074-0.049,1.6-0.16l48.624-9.72c9.875-1.969,19.476,4.44,21.445,14.315c1.969,9.875-4.44,19.476-14.315,21.445
			c-2.354,0.469-4.777,0.469-7.131,0l-48.624-9.72c-0.526-0.111-1.062-0.165-1.6-0.16h-24V40z M144.003,272h-40
			c-13.255,0-24,10.745-24,24v40h-64v-40c0.057-48.577,39.423-87.943,88-88h40V272z M232.003,16h16v8h-16V16z M232.003,40h16v16h-16
			V40z M232.003,72h16v48h-16V72z M192.003,56c-0.538-0.005-1.074,0.049-1.6,0.16l-48.624,9.72
			c-9.875,1.969-19.476-4.44-21.445-14.315c-1.969-9.875,4.44-19.476,14.315-21.445c2.354-0.469,4.777-0.469,7.131,0l48.624,9.72
			c0.526,0.111,1.062,0.165,1.6,0.16h24v16H192.003z M200.003,136h80v32h-80V136z M320.003,296h-160V184h160V296z M408.003,280h-72
			v-80h72V280z M464.003,312h-40V168h40V312z"/>
	</g>
</g>
<g>
	<g>
		<path d="M83.635,425.272l-28.584-53.064c-2.458-3.893-7.607-5.055-11.499-2.597c-1.048,0.662-1.935,1.549-2.597,2.597
			l-28.584,53.064c-6.068,11.143-5.763,24.67,0.8,35.528c7.381,12.128,20.637,19.435,34.832,19.2
			c14.195,0.235,27.451-7.072,34.832-19.2C89.398,449.941,89.703,436.415,83.635,425.272z M69.107,452.592
			C64.594,459.869,56.563,464.21,48.003,464c-8.56,0.21-16.591-4.131-21.104-11.408c-3.693-6.019-3.858-13.561-0.432-19.736
			l21.536-40l21.536,40C72.965,439.031,72.8,446.573,69.107,452.592z"/>
	</g>
</g>
<g>
</g>
<g>
</g>
<g>
</g>
<g>
</g>
<g>
</g>
<g>
</g>
<g>
</g>
<g>
</g>
<g>
</g>
<g>
</g>
<g>
</g>
<g>
</g>
<g>
</g>
<g>
</g>
<g>
</g>
</svg>

<?xml version="1.0" encoding="UTF-8" standalone="no"?>
<!DOCTYPE svg PUBLIC "-//W3C//DTD SVG 1.1//EN" "http://www.w3.org/Graphics/SVG/1.1/DTD/svg11.dtd">
<svg width="100%" height="100%" viewBox="0 0 481 481" version="1.1" xmlns="http://www.w3.org/2000/svg" xmlns:xlink="http://www.w3.org/1999/xlink" xml:space="preserve" xmlns:serif="http://www.serif.com/" style="fill-rule:evenodd;clip-rule:evenodd;stroke-linejoin:round;stroke-miterlimit:2;">
    <path d="M472.003,152L416.003,152C411.585,152 408.003,155.582 408.003,160L408.003,184L336.003,184L336.003,176C336.003,171.582 332.421,168 328.003,168L296.003,168L296.003,128C296.003,123.582 292.421,120 288.003,120L264.003,120L264.003,72L287.203,72L335.051,81.6C353.59,85.306 371.623,73.281 375.329,54.742C379.035,36.203 367.01,18.17 348.471,14.464C344.042,13.579 339.481,13.579 335.052,14.464L287.203,24L264.003,24L264.003,8C264.003,3.582 260.421,0 256.003,0L224.003,0C219.585,0 216.003,3.582 216.003,8L216.003,24L192.803,24L144.947,14.4C126.408,10.672 108.357,22.679 104.629,41.218C100.901,59.757 112.908,77.808 131.447,81.536C133.664,81.982 135.919,82.207 138.18,82.208C140.453,82.207 142.719,81.982 144.948,81.536L192.803,72L216.003,72L216.003,120L192.003,120C187.585,120 184.003,123.582 184.003,128L184.003,168L152.003,168C147.585,168 144.003,171.582 144.003,176L144.003,192L104.003,192C46.593,192.066 0.069,238.59 0.003,296L0.003,344C0.003,348.418 3.585,352 8.003,352L88.003,352C92.421,352 96.003,348.418 96.003,344L96.003,296C96.003,291.582 99.585,288 104.003,288L144.003,288L144.003,304C144.003,308.418 147.585,312 152.003,312L328.003,312C332.421,312 336.003,308.418 336.003,304L336.003,296L408.003,296L408.003,320C408.003,324.418 411.585,328 416.003,328L472.003,328C476.421,328 480.003,324.418 480.003,320L480.003,160C480.003,155.582 476.421,152 472.003,152ZM264.003,40L288.003,40C288.541,40.005 289.077,39.951 289.603,39.84L338.227,30.12C348.102,28.151 357.703,34.56 359.672,44.435C361.641,54.31 355.232,63.911 345.357,65.88C343.003,66.349 340.58,66.349 338.226,65.88L289.602,56.16C289.076,56.049 288.54,55.995 288.002,56L264.002,56L264.002,40L264.003,40ZM144.003,272L104.003,272C90.748,272 80.003,282.745 80.003,296L80.003,336L16.003,336L16.003,296C16.06,247.423 55.426,208.057 104.003,208L144.003,208L144.003,272ZM232.003,16L248.003,16L248.003,24L232.003,24L232.003,16ZM232.003,40L248.003,40L248.003,56L232.003,56L232.003,40ZM232.003,72L248.003,72L248.003,120L232.003,120L232.003,72ZM192.003,56C191.465,55.995 190.929,56.049 190.403,56.16L141.779,65.88C131.904,67.849 122.303,61.44 120.334,51.565C118.365,41.69 124.774,32.089 134.649,30.12C137.003,29.651 139.426,29.651 141.78,30.12L190.404,39.84C190.93,39.951 191.466,40.005 192.004,40L216.004,40L216.004,56L192.003,56ZM200.003,136L280.003,136L280.003,168L200.003,168L200.003,136ZM320.003,296L160.003,296L160.003,184L320.003,184L320.003,296ZM408.003,280L336.003,280L336.003,200L408.003,200L408.003,280ZM464.003,312L424.003,312L424.003,168L464.003,168L464.003,312Z" style="fill:rgb(255,33,77);fill-rule:nonzero;"/>
    <path d="M83.635,425.272L55.051,372.208C52.593,368.315 47.444,367.153 43.552,369.611C42.504,370.273 41.617,371.16 40.955,372.208L12.371,425.272C6.303,436.415 6.608,449.942 13.171,460.8C20.552,472.928 33.808,480.235 48.003,480C62.198,480.235 75.454,472.928 82.835,460.8C89.398,449.941 89.703,436.415 83.635,425.272ZM69.107,452.592C64.594,459.869 56.563,464.21 48.003,464C39.443,464.21 31.412,459.869 26.899,452.592C23.206,446.573 23.041,439.031 26.467,432.856L48.003,392.856L69.539,432.856C72.965,439.031 72.8,446.573 69.107,452.592Z" style="fill:rgb(255,33,77);fill-rule:nonzero;"/>
</svg>
